X:1
T:Title
%%score ( 1 2 ) { ( 3 5 ) | 4 }
L:1/8
M:4/4
K:Bb
V:1 treble nm="Grand Piano"
V:2 treble 
V:3 bass nm="Grand Piano"
V:5 bass 
V:4 bass 
V:1
 z4 z2[Q:1/4=100] B,2 | B,2 B,-[B,E] [CF]2 [=EB]2 | [FA]4 [FA]2 F2 | [EG]2 [DF]2 [EG]2 [EA]2 | %4
w: 1.Der~|Herr~ thront~ * in~ dem~|Him mel~ an~|Sei nes~ Va ters~|
[M:3/4] [FB]6 |[M:4/4] z4 .D2 z2 | [=EB]2 [FA]4 [FA]2 | F2 [EG]2 [DF]2 [EG]2 | %8
w: Seit'.~|thront~|dem~ Him mel~|an~ Sei nes~ Va|
[M:3/4] [EA]2 [FB]4- |[M:1/4] [FB]2 | d-[Fd] |[M:4/4] [=Ec]2 [FA]2 [DB][FA] [EG]2 | F6 [CF]2 | %13
w: ters~ Seit'.~||Ihr~ *|Herz en,~ macht~ * euch~|auf!~ Wo~|
 [FB]2 [CF]2 [DF]2 [EB][D_A] | [EG]4 [EG]2 G2 | [Gc]2 [Gd]2 [Ee][Fd]cB | [FB]4 [FA]2 F2 | %17
w: Je sus~ hin ge *|gan gen,~ da|hin~ sei~ das~ * Ver *|lan gen,~ da|
 E-[EA][FB][Gc] [FB]2 [EA]2 | [DB]6 z2 |] %19
w: hin~ * sei~ * eu er~|Lauf!~|
V:2
 x8 | z2 .D2 z4 | x8 | x8 |[M:3/4] x6 |[M:4/4] B,2 B,2 B,-[B,E] [CF]2 | x8 | x8 |[M:3/4] x6 | %9
w: |||||* Herr~ * * *||||
[M:1/4] x2 | G z |[M:4/4] x8 | x8 | x8 | x8 | z4 z2 G2 | x8 | .G2 z2 z4 | x8 |] %19
w: ||||||||||
V:3
 z4 z2 D,2 | F,2 F,G, A,2 B,2 | C4 C2 B,2 | z4 B,2 z2 |[M:3/4] D6 |[M:4/4] D,2 F,2 F,G, A,2 | %6
 B,2 C4 C2 | z4 z2 B,2 |[M:3/4][K:treble] C2 D4- |[M:1/4] D2 | B,A, | %11
[M:4/4][K:bass] G,2 F,2 G,2 CB, | z4 z2 A,2 | z4 B,2 B,2 | B,4 B,2 B,2 | E2 D2 z D,[K:treble]CE | %16
 D4 C2 B,2 | B,CDE D2 C2 | B,6 z2 |] %19
V:4
 z4 z2 B,,2 | D,2 B,,2 A,,2 G,,2 | F,,2 A,,C, F,2 D,2 | E,2 B,,2 .E,2 C,2 |[M:3/4] B,,6 | %5
[M:4/4] B,,2 D,2 B,,2 A,,2 | G,,2 F,,2 A,,C, F,2 | D,2 E,2 B,,2 .E,2 |[M:3/4] C,2 B,,4- | %9
[M:1/4] B,,2 | G,,2 |[M:4/4] C,2 D,2 B,,2 C,2 | F,,6 .F,2 | D,2 F,2 z2 .G,2 | E,2 B,,G,, E,,2 E,2 | %15
 C,2 =B,,2 .C,2 E,C, | F,2 D,B,, F,,2 D,2 | E,2 D,C, F,2 F,,2 | B,,6 z2 |] %19
V:5
 x8 | x8 | x8 | B,2 B,2 z D, C2 |[M:3/4] x6 |[M:4/4] x8 | x8 | B,2 B,2 B,2 z D, | %8
[M:3/4][K:treble] x6 |[M:1/4] x2 | x2 |[M:4/4][K:bass] x8 | A,6 z E, | D2 A,2 z _A, z F, | x8 | %15
 z4 G,2[K:treble] z2 | x8 | x8 | x8 |] %19

